!!!OTL: 650. Traumbild.
!!!ARE: Europa, Mitteleuropa, Deutschland, Hessen
!!!SCT: E0650
!!!TXL: @@DE
!!!YEM: Copyright 1995, estate of Helmut Schaffrath.
**kern	**text
*ICvox	*
*M4/4	*
*met(c)	*
*k[f#c#g#]	*
*A:	*
!LO:TX:a:t=Aus dem Lahnthale u. Dillkreis 1880. Wetʒlar 1890. Aus den Taunus 1879.	!
{8e	Jch
8e	ging
8e	im
=1	=1
4.a	nächt-
8a	-lich
(4a	ſtil-
16bqqL	.
16aqqJ	.
8g#)	.
8a	-len
=2	=2
8cc#L	Hai-
8bJ	.
4b	-ne,
4r}	.
{8g#L	des
8aJ	.
=3	=3
4.b	Nachts
8b	bei
8b	hellem
8b	.
8a	Monden-
8b/	.
=4	=4
(4cc#	-ſchei-
8eeL	.
8ddJ)	.
4cc#	-ne,
8r}	.
{8ee	ſah
=5	=5
4.b	ich
8ee	von
8b	fern
8b	ein
8a	Mäd-
8f#	-chen
=6	=6
2e	ſtehn,
4r}	.
{8eL	es
8bJ	.
=7	=7
4.b	war
8b	ſo
8a	ſchön
8g#	wie
8f#	ei-
8e	-ne
=8	=8
8cc#L	Re-
8aJ	.
4a	-be,
4r}	.
{8aL	es
8cc#J	.
=9	=9
4.ee	war,
8cc#	bei
8ff#	Gott,
8ee	ſo
8dd	wahr
8cc#	ich
=10	=10
8ddL	le-
8bJ	.
4b	-be,
4r}	.
{4ff#	die
=11	=11
8ee	Schön-
8g#	-ſte,
8a	die
8b	ich
4cc#	je
4b	ge-
=12	=12
2a	-ſehn.
8r}	.
==	==
!!!AGN: Liebes - Lied
!!!ONB: ESAC (Essen Associative Code) Database: ERK2
!!!AMT: simple quadruple
!!!AIN: vox
!!!EED: Helmut Schaffrath
!!!EEV: 1.0
!!!GTL: Liebeslieder [Neuere (aus dem 18. bis 19. Jahrh.) - Liebeslust]
!!!URL-scan: https://rosdok.uni-rostock.de/mcrviewer/recordIdentifier/rosdok_ppn745177662/iview2/phys_0461.iview2?x=146.5266599868146&y=307.16487222258&scale=0.7029437510502773&rotation=0&layout=singlePageLayout
!!!ENC: Anna Maria Matuszewska
!!!EEV: 2024/12/12
*-	*-
